X:1
T:Tournefeuille, 88.87.88.87.88.87
T:Tournefeuille, 88.87.88.87.88.87
T:Robert Lowry, 1882
T:Public Domain Courtesy of the Cyber Hymnal™
C:Robert Lowry, 1882
Z:Public Domain
Z:Courtesy of the Cyber Hymnal™
%%score ( 1 2 ) ( 3 4 )
L:1/8
Q:1/4=108
M:4/4
K:Bb
V:1 treble 
V:2 treble 
V:3 bass 
V:4 bass 
V:1
 [DF]2 [DF]>[DF] [DF]2 [FB]2 | [FA]2 [EG]2 [EG]4 | [EA]2 [EA]>[EA] [EA]2 [Ec]2 | %3
 [Ec]2 [DB]2 [DF]4 | [DF]2 [DF]>[DF] [FB]2 [Fd]2 | [Gf]2 [Ge]2 [Ge]3 [Ec] | %6
 [DB]2 [DB]>[DB] [Ec]2 [EA]2 | [DB]8 ||[K:F] [FA]2 [FA]>[GB] [Ac]2 [Af]2 | [Ac]2 [FA]2 [Ac]4 | %10
 [GB]2 [EG]>[FA] [GB]2 [Ac]2 | [Bd]2 [Ac]2 [FA]4 | [Ac]2 [FA]>[GB] [Ac]2 [Af]2 | %13
 [Bf]2 [Bd]2 [Bd]4 | [Fc]2 [Fc]>[GB] [FA]2 [EG]2 | (z6 _E2) x6 || %16
[K:Bb] [DF]2 [DF]>[DF] [DF]2 [FB]2 | [FA]2 [EG]2 [EG]4 | [EA]2 [EA]>[EA] [EA]2 [Ec]2 | %19
 [Ec]2 [DB]2 [DF]4 | [DF]2 [DF]>[DF] [FB]2 [Fd]2 | [Gf]2 [Ge]2 [Ge]3 [Ec] | %22
 [DB]2 [DB]>[DB] [Ec]2 [EA]2 | [DB]8 |] %24
V:2
 x8 | x8 | x8 | x8 | x8 | x8 | x8 | x8 ||[K:F] x8 | x8 | x8 | x8 | x8 | x8 | x8 | F8 x6 || %16
[K:Bb] x8 | x8 | x8 | x8 | x8 | x8 | x8 | x8 |] %24
V:3
 [B,,B,]2 [B,,B,]>[B,,B,] [B,,B,]2 [D,B,]2 | [E,B,]2 [E,B,]2 [E,B,]4 | %2
 F,2 [F,C]>[F,C] [F,C]2 [F,A,]2 | [B,,B,]2 [B,,B,]2 [B,,B,]4 | %4
 [B,,B,]2 [B,,B,]>[B,,B,] [B,,D]2 [B,,B,]2 | [E,B,]2 [E,B,]2 [E,B,]3 [E,G,] | %6
 F,2 F,>F, [F,A,]2 [F,C]2 | [B,,B,]8 ||[K:F] [F,C]2 [F,C]>[F,C] [F,C]2 [F,C]2 | %9
 [F,F]2 [F,C]2 [F,C]4 | [C,C]2 [C,C]>[C,C] [C,C]2 [C,C]2 | [C,C]2 [C,C]2 [F,C]4 | %12
 [F,F]2 [F,C]>[F,C] [F,C]2 [F,C]2 | [B,D]2 [B,F]2 [B,F]4 | [A,F]2 [A,F]>[B,D] C2 [C,B,]2 | %15
 z2 x12 ||[K:Bb] [B,,B,]2 [B,,B,]>[B,,B,] [B,,B,]2 [D,B,]2 | [E,B,]2 [E,B,]2 [E,B,]4 | %18
 F,2 [F,C]>[F,C] [F,C]2 [F,A,]2 | [B,,B,]2 [B,,B,]2 [B,,B,]4 | %20
 [B,,B,]2 [B,,B,]>[B,,B,] [B,,D]2 [B,,B,]2 | [E,B,]2 [E,B,]2 [E,B,]3 [E,G,] | %22
 F,2 F,>F, [F,A,]2 [F,C]2 | [B,,B,]8 |] %24
V:4
 x8 | x8 | F,2 x6 | x8 | x8 | x8 | F,2 F,>F, x4 | x8 ||[K:F] x8 | x8 | x8 | x8 | x8 | x8 | %14
 x4 C2 x2 | [F,A,]8 _E,2 D,2 C,2 ||[K:Bb] x8 | x8 | F,2 x6 | x8 | x8 | x8 | F,2 F,>F, x4 | x8 |] %24

